storage/app/icons/tabler/filled/file-dollar.svg

<!--
unicode: "1019b"
version: "3.35"
-->
<svg
  xmlns="http://www.w3.org/2000/svg"
  width="24"
  height="24"
  viewBox="0 0 24 24"
  fill="currentColor"
>
  <path d="M12 2l.117 .007a1 1 0 0 1 .876 .876l.007 .117v4l.005 .15a2 2 0 0 0 1.838 1.844l.157 .006h4l.117 .007a1 1 0 0 1 .876 .876l.007 .117v9a3 3 0 0 1 -2.824 2.995l-.176 .005h-10a3 3 0 0 1 -2.995 -2.824l-.005 -.176v-14a3 3 0 0 1 2.824 -2.995l.176 -.005zm0 8a1 1 0 0 0 -1 1v.05a2.5 2.5 0 0 0 .5 4.95h1a.5 .5 0 1 1 0 1h-2.5a1 1 0 0 0 0 2h1a1 1 0 0 0 2 0v-.05a2.5 2.5 0 0 0 -.5 -4.95h-1a.5 .5 0 1 1 0 -1h2.5a1 1 0 0 0 0 -2h-1a1 1 0 0 0 -1 -1" />
  <path d="M19 7h-4l-.001 -4.001z" />
</svg>

<svg xmlns="http://www.w3.org/2000/svg" width="24" height="24" fill="currentColor" viewBox="0 0 24 24"><path d="m12 2 .117.007a1 1 0 0 1 .876.876L13 3v4l.005.15a2 2 0 0 0 1.838 1.844L15 9h4l.117.007a1 1 0 0 1 .876.876L20 10v9a3 3 0 0 1-2.824 2.995L17 22H7a3 3 0 0 1-2.995-2.824L4 19V5a3 3 0 0 1 2.824-2.995L7 2zm0 8a1 1 0 0 0-1 1v.05a2.5 2.5 0 0 0 .5 4.95h1a.5.5 0 1 1 0 1H10a1 1 0 0 0 0 2h1a1 1 0 0 0 2 0v-.05a2.5 2.5 0 0 0-.5-4.95h-1a.5.5 0 1 1 0-1H14a1 1 0 0 0 0-2h-1a1 1 0 0 0-1-1"/><path d="M19 7h-4l-.001-4.001z"/></svg>
